X: 770
T: Chungeng qu
L: 1/8
M: 4/4
K: F
d2d cd2d f [I:setbarnb 1]| 
A G A cd4 | 
c d c AG2F G | 
c A G FD2z2 | 
d2d cd2d f | 
A G A cd4 | 
c d c AG2F G | 
c A G FD2z2 | 
A G F G A GA2 | 
c A G FD2z2 | 
d cA2d cA2 | 
A G A c d cd2 | 
c d c AG2F G | 
c A G FD4 |]

@@@ Tune index: 9644
